X:1156
T:Fyrspannian
T:Svenska L\aatar, Sk\aane nr 542
C:anon.
O:Sweden
A:H\"o\"or, Sk\aane
B:Svenska L\aatar, Sk\aane nr 542
R:Polska, Folia
Z:efter J. Bruun. Transcribed by Sigfrid Lundberg
F:http://abc.musicaviva.com/tunes/sweden/fyrspannian.abc
%Posted May 29th 2000 at abcusers by Sigfrid Lundberg
M:3/4
L:1/8
K:Dm
D>G G>^F G>A  |G>^F F>E F>D|D>G G>^F G>A|B>A A>G A>=F|
F>B B>c  d>B  |B>A  F>A c>A|A>G G>B  d>B|A^F G2  G,2:|
|: B>d d>d f>d|d>c  c>d c>A|A>B B>B  d>B|B>A A>B A>A |
   B>d d>d f>d|d>c  c>d c>A|A>B B>B  d>B|B>A A>D E>^F|
D>G G>^F G>A  |G>^F F>E F>D|D>G G>^F G>A|B>A A>G A>=F|
F>B B>c  d>B  |B>A  F>A c>A|A>G G>B  d>B|A^F G2  G,2:|
W:
W:
W:  From Musica Viva - http://www.musicaviva.com
W:  the Internet center for free sheet music downloads.
